svg/icon/bq.svg

<svg height="32" viewBox="0 0 32 32" width="32" xmlns="http://www.w3.org/2000/svg" xmlns:xlink="http://www.w3.org/1999/xlink"><defs><linearGradient id="a" x1="50%" x2="50%" y1="0%" y2="100%"><stop offset="0" stop-color="#fff" stop-opacity=".5"/><stop offset="1" stop-opacity=".5"/></linearGradient><circle id="b" cx="16" cy="15" r="15"/><filter id="c" height="111.7%" width="111.7%" x="-5.8%" y="-4.2%"><feOffset dy=".5" in="SourceAlpha" result="shadowOffsetOuter1"/><feGaussianBlur in="shadowOffsetOuter1" result="shadowBlurOuter1" stdDeviation=".5"/><feComposite in="shadowBlurOuter1" in2="SourceAlpha" operator="out" result="shadowBlurOuter1"/><feColorMatrix in="shadowBlurOuter1" values="0 0 0 0 0   0 0 0 0 0   0 0 0 0 0  0 0 0 0.199473505 0"/></filter><path id="d" d="m9.96161846 15.9541444c-.00013479 2.1327927 1.73811224 3.8615735 3.86935684 3.8481298 2.1222141-.0133768 3.845837-1.7161062 3.846949-3.8002409.0011456-2.158543-1.7070445-3.8716395-3.8577991-3.8688972-2.1325925.0026753-3.85837196 1.7116918-3.85850674 3.8210083m.00448158 4.1402116v1.2722315h-1.96610004v-14.3665875c.55864764.01003258 1.03096587.20941338 1.41031657.60549964.36253634.37856268.54358548.83457688.54122675 1.36255811-.00421201.94674112-.00117936 1.89351565-.00117936 2.88583815 1.37234104-1.1464898 2.90150374-1.7123607 4.68220784-1.4402437 1.7653387.2698095 3.1209665 1.1586292 4.0443407 2.6773611 1.3953892 2.2951199.9432886 5.2263722-1.0776686 7.0507968-1.9715925 1.7797797-5.2460111 2.0549065-7.63314386-.0474541zm6.35870336 1.2461602c.0786467-.0469191.1187114-.0745421.1618761-.0960453.6230072-.3105418 1.1769711-.7134502 1.6504687-1.2220016.1051992-.1130003.222529-.1702195.3804626-.1792822 1.6702483-.0960787 3.1748129-1.4407788 3.4578264-3.0843161.3718702-2.1592118-.9404918-4.0663384-3.1106554-4.4797475-.3233815-.0616001-.5547726-.1822251-.7704614-.4203651-.4000401-.4417345-.8848595-.7866212-1.4027349-1.0840537-.0431647-.0247805-.0851164-.051534-.1574956-.0955102.9834881-.2704783 1.9426139-.3339177 2.9153192-.1135019.9663704.2189778 1.7997424.6931844 2.5796723 1.3409212v-1.2754419h1.9709186v14.3688281c-.5556487-.0153498-1.0220027-.2137274-1.4011175-.6015535-.3726115-.3811711-.5510997-.8454789-.5514704-1.3764031-.0005728-.9412232-.0001685-1.8824798-.0001685-2.8696857-1.6983845 1.4221517-3.576504 1.8483357-5.7224402 1.1881585z"/><filter id="e" height="119.4%" width="121.9%" x="-10.9%" y="-6.9%"><feOffset dy=".5" in="SourceAlpha" result="shadowOffsetOuter1"/><feGaussianBlur in="shadowOffsetOuter1" result="shadowBlurOuter1" stdDeviation=".5"/><feColorMatrix in="shadowBlurOuter1" values="0 0 0 0 0   0 0 0 0 0   0 0 0 0 0  0 0 0 0.204257246 0"/></filter></defs><g fill="none" fill-rule="evenodd"><use fill="#000" filter="url(#c)" xlink:href="#b"/><use fill="#1d1d1d" xlink:href="#b"/><use fill="url(#a)" xlink:href="#b"/><circle cx="16" cy="15" r="14.5" stroke="#000" stroke-opacity=".097"/><use fill="#000" filter="url(#e)" xlink:href="#d"/><use fill="#fff" xlink:href="#d"/></g></svg>

<svg xmlns="http://www.w3.org/2000/svg" xmlns:xlink="http://www.w3.org/1999/xlink" width="32" height="32" viewBox="0 0 32 32">
  <defs>
    <linearGradient id="bq-c" x1="50%" x2="50%" y1="0%" y2="100%">
      <stop offset="0%" stop-color="#FFF" stop-opacity=".5"/>
      <stop offset="100%" stop-opacity=".5"/>
    </linearGradient>
    <circle id="bq-b" cx="16" cy="15" r="15"/>
    <filter id="bq-a" width="111.7%" height="111.7%" x="-5.8%" y="-4.2%" filterUnits="objectBoundingBox">
      <feOffset dy=".5" in="SourceAlpha" result="shadowOffsetOuter1"/>
      <feGaussianBlur in="shadowOffsetOuter1" result="shadowBlurOuter1" stdDeviation=".5"/>
      <feComposite in="shadowBlurOuter1" in2="SourceAlpha" operator="out" result="shadowBlurOuter1"/>
      <feColorMatrix in="shadowBlurOuter1" values="0 0 0 0 0   0 0 0 0 0   0 0 0 0 0  0 0 0 0.199473505 0"/>
    </filter>
    <path id="bq-e" d="M9.96161846,15.9541444 C9.96148367,18.0869371 11.6997307,19.8157179 13.8309753,19.8022742 C15.9531894,19.7888974 17.6768123,18.086168 17.6779243,16.0020333 C17.6790699,13.8434903 15.9708798,12.1303938 13.8201252,12.1331361 C11.6875327,12.1358114 9.96175324,13.8448279 9.96161846,15.9541444 M9.96610004,20.094356 L9.96610004,21.3665875 L8,21.3665875 L8,7 C8.55864764,7.01003258 9.03096587,7.20941338 9.41031657,7.60549964 C9.77285291,7.98406232 9.95390205,8.44007652 9.95154332,8.96805775 C9.94733131,9.91479887 9.95036396,10.8615734 9.95036396,11.8538959 C11.322705,10.7074061 12.8518677,10.1415352 14.6325718,10.4136522 C16.3979105,10.6834617 17.7535383,11.5722814 18.6769125,13.0910133 C20.0723017,15.3861332 19.6202011,18.3173855 17.5992439,20.1418101 C15.6276514,21.9215898 12.3532328,22.1967166 9.96610004,20.094356 Z M16.3248034,21.3405162 C16.4034501,21.2935971 16.4435148,21.2659741 16.4866795,21.2444709 C17.1096867,20.9339291 17.6636506,20.5310207 18.1371482,20.0224693 C18.2423474,19.909469 18.3596772,19.8522498 18.5176108,19.8431871 C20.1878591,19.7471084 21.6924237,18.4024083 21.9754372,16.758871 C22.3473074,14.5996592 21.0349454,12.6925326 18.8647818,12.2791235 C18.5414003,12.2175234 18.3100092,12.0968984 18.0943204,11.8587584 C17.6942803,11.4170239 17.2094609,11.0721372 16.6915855,10.7747047 C16.6484208,10.7499242 16.6064691,10.7231707 16.5340899,10.6791945 C17.517578,10.4087162 18.4767038,10.3452768 19.4494091,10.5656926 C20.4157795,10.7846704 21.2491515,11.258877 22.0290814,11.9066138 L22.0290814,10.6311719 L24,10.6311719 L24,25 C23.4443513,24.9846502 22.9779973,24.7862726 22.5988825,24.3984465 C22.226271,24.0172754 22.0477828,23.5529676 22.0474121,23.0220434 C22.0468393,22.0808202 22.0472436,21.1395636 22.0472436,20.1523577 C20.3488591,21.5745094 18.4707396,22.0006934 16.3248034,21.3405162 Z"/>
    <filter id="bq-d" width="121.9%" height="119.4%" x="-10.9%" y="-6.9%" filterUnits="objectBoundingBox">
      <feOffset dy=".5" in="SourceAlpha" result="shadowOffsetOuter1"/>
      <feGaussianBlur in="shadowOffsetOuter1" result="shadowBlurOuter1" stdDeviation=".5"/>
      <feColorMatrix in="shadowBlurOuter1" values="0 0 0 0 0   0 0 0 0 0   0 0 0 0 0  0 0 0 0.204257246 0"/>
    </filter>
  </defs>
  <g fill="none" fill-rule="evenodd">
    <use fill="#000" filter="url(#bq-a)" xlink:href="#bq-b"/>
    <use fill="#1D1D1D" xlink:href="#bq-b"/>
    <use fill="url(#bq-c)" style="mix-blend-mode:soft-light" xlink:href="#bq-b"/>
    <circle cx="16" cy="15" r="14.5" stroke="#000" stroke-opacity=".097"/>
    <g>
      <use fill="#000" filter="url(#bq-d)" xlink:href="#bq-e"/>
      <use fill="#FFF" xlink:href="#bq-e"/>
    </g>
  </g>
</svg>
